!!!COM: Honegger, Arthur
!!!OTL: Symphony No. 2 for String Orchestra and Trumpet (ad lib.)
!!!OMV: III: Vivace, non troppo
!!!example: 606
!!!work: Hon-35
**kern	**kern	**dynam	**kern	**dynam	**kern	**dynam	**kern	**dynam
*part5	*part4	*part4	*part3	*part3	*part2	*part2	*part1	*part1
*staff5	*staff4	*	*staff3	*	*staff2	*	*staff1	*
*I"Contrabass	*I"Violoncello	*	*I"Viola	*	*I"Violin II	*	*I"Violin I	*
*I'Cb.	*I'Vc.	*	*I'Vla.	*	*I'Vln. II	*	*I'Vln. I	*
*clefF4	*clefF4	*	*clefC3	*	*clefG2	*	*clefG2	*
*k[]	*k[]	*	*k[]	*	*k[]	*	*k[]	*
*C:	*C:	*	*C:	*	*C:	*	*C:	*
*M6/8	*M6/8	*	*M6/8	*	*M6/8	*	*M6/8	*
*MM121	*MM121	*	*MM121	*	*MM121	*	*MM121	*
=1	=1	=1	=1	=1	=1	=1	=1	=1
2.r	2.r	.	2.r	.	8aa'L	p	2.r	.
.	.	.	.	.	8aa'	.	.	.
.	.	.	.	.	8aa'J	.	.	.
.	.	.	.	.	8aa'L	.	.	.
.	.	.	.	.	8aa'	.	.	.
.	.	.	.	.	8aa'J	.	.	.
=2	=2	=2	=2	=2	=2	=2	=2	=2
!	!	!	!	!	!	!	!LO:TX:a:t=pizz.	!
2.r	2.r	.	2.r	.	8aa'L	.	16%3cc#X'L	p
.	.	.	.	.	8aa'	.	.	.
.	.	.	.	.	.	.	16%3ee#X'J	.
.	.	.	.	.	8aa'J	.	.	.
.	.	.	.	.	8aa'L	.	16%3dd#X'L	.
.	.	.	.	.	8aa'	.	.	.
.	.	.	.	.	.	.	16%3gg#X'J	.
.	.	.	.	.	8aa'J	.	.	.
=3	=3	=3	=3	=3	=3	=3	=3	=3
2.r	2.r	.	2.r	.	8dd'L 8aa	<	16%3aa#X'L	.
.	.	.	.	.	8dd' 8aa	.	.	.
.	.	.	.	.	.	.	16%3gg#X'J	.
.	.	.	.	.	8dd'J 8aa	.	.	.
.	.	.	.	.	8dd'L 8aa	.	16%3ee#X'L	.
.	.	.	.	.	8dd' 8aa	.	.	.
.	.	.	.	.	.	.	16%3gg#'J	.
.	.	.	.	.	8dd'J 8aa	[[	.	.
=4	=4	=4	=4	=4	=4	=4	=4	=4
2.r	2.r	.	2.r	.	8dd'L 8aa	.	16%3ee#X'L	.
.	.	.	.	.	8dd' 8aa	.	.	.
.	.	.	.	.	.	.	16%3dd#X'J	.
.	.	.	.	.	8dd'J 8aa	.	.	.
.	.	.	.	.	8dd'L 8aa	.	16%3ee#'L	.
.	.	.	.	.	8dd' 8aa	.	.	.
.	.	.	.	.	.	.	16%3gg#X'J	.
.	.	.	.	.	8dd'J 8aa	.	.	.
=5	=5	=5	=5	=5	=5	=5	=5	=5
2.r	2.r	.	2.r	.	8dd'L 8aa	.	16%3cc#X'L	.
.	.	.	.	.	8dd' 8aa	.	.	.
.	.	.	.	.	.	.	16%3ee#X'J	.
.	.	.	.	.	8dd'J 8aa	.	.	.
.	.	.	.	.	8dd'L 8aa	.	16%3dd#X'	.
.	.	.	.	.	8dd' 8aa	.	.	.
.	.	.	.	.	.	.	16%3r	.
.	.	.	.	.	8dd'J 8aa	.	.	.
=6	=6	=6	=6	=6	=6	=6	=6	=6
2.r	2.r	.	2.r	.	8dd'L 8aa	.	16%3cc#X'L	.
.	.	.	.	.	8dd' 8aa	.	.	.
.	.	.	.	.	.	.	16%3dd#X'J	.
.	.	.	.	.	8dd'J 8aa	.	.	.
.	.	.	.	.	8dd'L 8aa	.	16%3ee#X'L	.
.	.	.	.	.	8dd' 8aa	.	.	.
.	.	.	.	.	.	.	16%3gg#X'J	.
.	.	.	.	.	8dd'J 8aa	.	.	.
=7	=7	=7	=7	=7	=7	=7	=7	=7
2.r	[4.f#X^	f	[4.ff#X^	f	8dd'L 8aa	mf	16%3aa#X'L	.
.	.	.	.	.	8dd' 8aa	.	.	.
.	.	.	.	.	.	.	16%3gg#X'J	.
.	.	.	.	.	8dd'J 8aa	.	.	.
.	8f#]	.	8ff#]	.	8dd'L 8aa	.	16%3aa#'L	.
.	16r	.	16r	.	8dd' 8aa	.	.	.
.	(16BLL	.	(16bLL	.	.	.	16%3gg#'J	.
.	16F#X	.	16f#X	.	8dd'J 8aa	.	.	.
.	16C#XJJ	.	16c#XJJ	.	.	.	.	.
=8	=8	=8	=8	=8	=8	=8	=8	=8
!LO:TX:a:t=pizz.	!	!	!	!	!	!	!	!
8GG#X	8GG#X)	.	8G#X)	.	8dd'L 8aa	.	16%3ee#XL	.
8r	8r	.	8r	.	8dd' 8aa	.	.	.
.	.	.	.	.	.	.	16%3dd#XJ	.
8r	8AA'	.	8A'	.	8dd'J 8aa	.	.	.
8BB'	8BB'	.	8B'	.	8dd'L 8aa	.	16%3gg#XL	.
8r	8r	.	8r	.	8dd' 8aa	.	.	.
.	.	.	.	.	.	.	16%3ee#J	.
8r	8r	.	8r	.	8dd'J 8aa	.	.	.
=9	=9	=9	=9	=9	=9	=9	=9	=9
8AA'	8AA'	.	8A'	.	8dd'L 8aa	.	16%3cc#XL	.
8r	8r	.	8r	.	8dd' 8aa	.	.	.
.	.	.	.	.	.	.	16%3dd#XJ	.
8r	8r	.	8r	.	8dd'J 8aa	.	.	.
8C#X'	8C#X'	.	8c#X'	.	8dd'L 8aa	.	16%3cc#	.
8r	8r	.	8r	.	8dd' 8aa	.	.	.
.	.	.	.	.	.	.	16%3r	.
8r	8r	.	8r	.	8dd'J 8aa	.	.	.
=10	=10	=10	=10	=10	=10	=10	=10	=10
4EE#X	2.EE#X~	.	2.E#X~	.	8dd'L 8ff#X 8aa	.	16%3cc#XL	.
.	.	.	.	.	8dd' 8ff# 8aa	.	.	.
.	.	.	.	.	.	.	16%3ee#XJ	.
8r	.	.	.	.	8dd'J 8ff# 8aa	.	.	.
4.r	.	.	.	.	8dd'L 8ff# 8aa	.	16%3dd#XL	.
.	.	.	.	.	8dd' 8ff# 8aa	.	.	.
.	.	.	.	.	.	.	16%3gg#XJ	.
.	.	.	.	.	8dd'J 8ff# 8aa	.	.	.
=11	=11	=11	=11	=11	=11	=11	=11	=11
8CC#X'	8CC#X'	.	8C#X'	.	8dd'L 8ff#X 8aa	.	16%3aa#XL	.
8r	8r	.	8r	.	8dd' 8ff# 8aa	.	.	.
.	.	.	.	.	.	.	16%3gg#XJ	.
8r	8AA'	.	8A'	.	8dd'J 8ff# 8aa	.	.	.
8FF#X'	8FF#X'	.	8F#X'	.	8dd'L 8ff# 8aa	.	16%3aa#L	.
8r	8r	.	8r	.	8dd' 8ff# 8aa	.	.	.
.	.	.	.	.	.	.	16%3gg#J	.
8r	8D'	.	8d'	.	8dd'J 8ff# 8aa	.	.	.
=12	=12	=12	=12	=12	=12	=12	=12	=12
8GG#X'	8GG#X'	.	8G#X'	.	8dd'L 8ff#X 8aa	.	16%3ee#XL	.
8r	8r	.	8r	.	8dd' 8ff# 8aa	.	.	.
.	.	.	.	.	.	.	16%3dd#XJ	.
8r	8F#X'	.	8f#X'	.	8dd'J 8ff# 8aa	.	.	.
8C#X'	8C#X'	.	8c#X'	.	8dd'L 8ff# 8aa	.	16%3gg#XL	.
8r	8r	.	8r	.	8dd' 8ff# 8aa	.	.	.
.	.	.	.	.	.	.	16%3ee#J	.
8r	8B'	.	8b'	.	8dd'J 8ff# 8aa	.	.	.
*	*	*	*clefG2	*	*	*	*	*
=13	=13	=13	=13	=13	=13	=13	=13	=13
8G#X	(4G#X	.	(4g#X	.	8dd'L 8ff#X 8aa	.	16%3cc#XL	.
8r	.	.	.	.	8dd' 8ff# 8aa	.	.	.
.	.	.	.	.	.	.	16%3dd#XJ	.
8r	8A	.	8a	.	8dd'J 8ff# 8aa	.	.	.
*	*clefC4	*	*	*	*	*	*	*
4.r	8g#XL)	.	8gg#XL)	.	8dd'L 8ff# 8aa	.	16%3cc#	.
.	8f#X'	.	8ff#X'	.	8dd' 8ff# 8aa	.	.	.
.	.	.	.	.	.	.	16%3r	.
.	8e#X'J	.	8ee#X'J	.	8dd'J 8ff# 8aa	.	.	.
=14	=14	=14	=14	=14	=14	=14	=14	=14
.	(16qa/LL	.	(16qaa/LL	.	.	.	.	.
.	16qb/JJ	.	16qbb/JJ	.	.	.	.	.
2.r	[4.a)	.	[4.aa)	.	8dd'L 8ff#X 8aa	.	16%3cc#XL	.
.	.	.	.	.	8dd' 8ff# 8aa	.	.	.
.	.	.	.	.	.	.	16%3dd#XJ	.
.	.	.	.	.	8dd'J 8ff# 8aa	.	.	.
.	8a]	.	8aa]	.	8dd'L 8ff# 8aa	.	16%3ee#XL	.
.	8r	.	8r	.	8dd' 8ff# 8aa	.	.	.
.	.	.	.	.	.	.	16%3gg#XJ	.
.	(16aLL	.	(16aaLL	.	8dd'J 8ff# 8aa	.	.	.
.	16bJJ)	.	16bbJJ)	.	.	.	.	.
=	=	=	=	=	=	=	=	=
*-	*-	*-	*-	*-	*-	*-	*-	*-
!!!system-decoration: [(s1,s2,s3,s4,s5)]
!!!CDT: 1892/03/10-1955/11/27
!!!CBL: Le Havre, France
!!!CDL: Paris, France
!!!CNT: Swiss, French
!!!AGN: Orchestral; Symphonic
!!!MCN: Sacher, Paul
!!!MDT: 1942/05/18
!!!MGN: Zurich Collegium Musicum
!!!MLC: Zürich, Switzerland
!!!MPD: 1942
!!!MPN:
!!!ODT: 1941
!!!PDT: 1942
!!!excerpt-start-measure: 1
!!!excerpt-end-measure: 14
!!!excerpt-start-time: 0:00
!!!excerpt-end-time: 0:16
!!!EEV: 2020/01/27
!!!ONB: Converted from MusicXML on 2020/01/27
